X: 30
T: No_123_The_Queen_of_England.krn
N: Derived from No_123_The_Queen_of_England.krn
%%abc-version 2.0
%%abcx-abcm2ps-target-version 5.9.1 (29 Sep 2008)
%%abc-creator hum2abc beta
%%abcx-conversion-date 2019/03/15 08:35:44
%%humdrum-veritas 2734793447
%%humdrum-veritas-data 2648698667
%%linebreak <none>
%%barnumbers 0
L: 1/8
M: 3/4
K: G clef=bass
[K:clef=bass][M:3/4]DB, B,B,B,2 ||  
[M:2/4]B,2A,A, | 
G,G,D,2 | 
G,2G,G, | 
G,G, G, z | 
B,2B,A, | 
B,G, G,/ z/ A, | 
G,D, D,D, | 
D,2D, z | 
G,2G,E, | 
D,D,D,2 | 
D,2z2 |]  



